images/wayside_shrine.svg

<svg xmlns="http://www.w3.org/2000/svg" width="14" height="14">
    <path d="M7 0L5 3v9h4V3zm0 3.998a1 1 0 011 1A1 1 0 008 5v3H6V5a1 1 0 000-.002 1 1 0 011-1zM4 13v1h6v-1z" opacity=".5" fill="none" stroke="#fff" stroke-width="3" stroke-linecap="round" stroke-linejoin="round" stroke-opacity=".976" paint-order="markers stroke fill"/>
    <path d="M7 0L5 3v9h4V3L7 0zm0 3.998a1 1 0 011 1A1 1 0 008 5v3H6V5a1 1 0 000-.002 1 1 0 011-1zM4 13v1h6v-1H4z" paint-order="markers stroke fill"/>
</svg>

<?xml version="1.0" encoding="UTF-8" standalone="no"?>
<svg xmlns:dc="http://purl.org/dc/elements/1.1/" xmlns:cc="http://creativecommons.org/ns#" xmlns:rdf="http://www.w3.org/1999/02/22-rdf-syntax-ns#" xmlns:svg="http://www.w3.org/2000/svg" xmlns="http://www.w3.org/2000/svg" xmlns:sodipodi="http://sodipodi.sourceforge.net/DTD/sodipodi-0.dtd" xmlns:inkscape="http://www.inkscape.org/namespaces/inkscape" version="1.1" id="svg109" width="14" height="14" viewBox="0 0 14 14" sodipodi:docname="wayside_shrine.svg" inkscape:version="0.92.3 (2405546, 2018-03-11)">
  <sodipodi:namedview pagecolor="#ffffff" bordercolor="#666666" borderopacity="1" objecttolerance="10" gridtolerance="10" guidetolerance="10" inkscape:pageopacity="0" inkscape:pageshadow="2" inkscape:window-width="1881" inkscape:window-height="1051" id="namedview19023" showgrid="false" inkscape:zoom="16.857143" inkscape:cx="-13.92698" inkscape:cy="7.0003211" inkscape:window-x="0" inkscape:window-y="0" inkscape:window-maximized="1" inkscape:current-layer="svg109" inkscape:pagecheckerboard="true" />
  <metadata id="metadata115">
    <rdf:RDF>
      <cc:Work rdf:about="">
        <dc:format>image/svg+xml</dc:format>
        <dc:type rdf:resource="http://purl.org/dc/dcmitype/StillImage" />
        <dc:title />
      </cc:Work>
    </rdf:RDF>
  </metadata>
  <defs id="defs113" />
  <path style="opacity:0.5;fill:none;fill-opacity:1;stroke:#ffffff;stroke-width:3;stroke-linecap:round;stroke-linejoin:round;stroke-miterlimit:4;stroke-dasharray:none;stroke-opacity:0.97641512;paint-order:markers stroke fill" d="M 7,0 L 5,3 V 12 H 9 V 3 Z M 7,3.9980469 A 1,1 0 0 1 8,4.9980469 A 1,1 0 0 0 8,5 V 8 H 6 V 5 A 1,1 0 0 0 6,4.9980469 A 1,1 0 0 1 7,3.9980469 Z M 4,13 V 14 H 10 V 13 Z" id="outline" inkscape:connector-curvature="0" />
  <path id="rect816" d="M 7 0 L 5 3 L 5 12 L 9 12 L 9 3 L 7 0 z M 7 3.9980469 A 1 1 0 0 1 8 4.9980469 A 1 1 0 0 0 8 5 L 8 8 L 6 8 L 6 5 A 1 1 0 0 0 6 4.9980469 A 1 1 0 0 1 7 3.9980469 z M 4 13 L 4 14 L 10 14 L 10 13 L 4 13 z " style="opacity:1;fill:#000000;fill-opacity:1;stroke:none;stroke-width:0.21650636;stroke-linecap:square;stroke-miterlimit:4;stroke-dasharray:none;stroke-opacity:1;paint-order:markers stroke fill" />
</svg>
